X: 478
T: Niema czego trzeba	 Op. 74
C: Fryderyk Chopin
%%abc-version 2.0
%%abcx-abcm2ps-target-version 5.9.1 (29 Sep 2008)
%%abc-creator hum2abc beta
%%abcx-conversion-date 2021/10/03 11:23:46
%%abc-edited-by Wojciech Jakubiak-Danek
%%abc-edited-by Antoni Szymański
%%abcx-initial-encoding-date 2019-08-26
%%humdrum-veritas 2700889234
%%humdrum-veritas-data 29424252
%%linebreak <none>
%%barnumbers 0
L: 1/4
M: 2/4
N: Derived from 074-1-G-013.krn
P: Zbiór śpiewów polskich z towarzyszeniem fortepianu
Q: "M. M. [quarter] = 63." 1/4=63
V: 1 clef=treble
V: 2 clef=treble
V: 3 clef=bass
K: C
[V:1] z2 | 
[V:2] [AEC]A3//B// & x[FD] | 
[V:3] [A,A,,][A,D,] | 
[V:1] z2 | 
[V:2] [AEC]A3//B// & x[FD] | 
[V:3] [A,A,,][A,D,] | 
[V:1] z2 | 
[V:2] [AEC]^G3//A// & x[EB,] | 
[V:3] [A,A,,]B,, | 
[V:1] z2 ||  
[V:2] [^F^DA,G,][EB,^G,] ||  
[V:3] B,,E,, ||  
[V:1] EB3// c// | 
[V:2] [E2D2B,2^G,2] | 
[V:3] [E,2E,,2] | 
[V:1] A-{/B} A/ G/ | 
[V:2] [E2C2A,2] | 
[V:3] [E,2A,,2] | 
[V:1] FG/ F/ | 
[V:2] [D2B,2A,2] | 
[V:3] D,!accent!D,, | 
[V:1] E3/e/ | 
[V:2] [E2C2A,2] | 
[V:3] [E,2A,,2] | 
[V:1] d/c/ B/ c/ | 
[V:2] [^G2D2B,2] | 
[V:3] [E,2E,,2] | 
[V:1] AB | 
[V:2] [ACA,][AFB,A,] | 
[V:3] [F,F,,][D,D,,] | 
[V:1] (3E/F/ E/^G | 
[V:2] [^G2E2D2B,2] | 
[V:3] [E,2E,,2] | 
[V:1] Ac/ z/ | 
[V:2] [AEC][ECA,] | 
[V:3] [A,A,,][E,A,,] | 
[V:1] cd/ e/ | 
[V:2] [E2C2G,2]- | 
[V:3] C,2- | 
[V:1] GA | 
[V:2] [E2C2G,2] | 
[V:3] C,2 | 
[V:1] Bc/ B/ | 
[V:2] [D2B,2G,2] | 
[V:3] G,,2 | 
[V:1] AB/ z/ | 
[V:2] [F2D2A,2] | 
[V:3] D,,2 | 
[V:1] ^GE/ E/ | 
[V:2] [E2D2B,2G,2] | 
[V:3] [E,2E,,2] | 
[V:1] Ad3// A// | 
[V:2] [ECA,][FDA,] | 
[V:3] A,,D,, | 
[V:1] cB3// c// | 
[V:2] [ECA,][EDG,] | 
[V:3] E,,E, | 
[V:1] A=G | 
[V:2] [ECA,][ECG,] | 
[V:3] A,,C, | 
[V:1] cd/ e/ | 
[V:2] [E2C2G,2]- | 
[V:3] C,2- | 
[V:1] GA | 
[V:2] [E2C2G,2] | 
[V:3] C,2 | 
[V:1] Bc/ B/ | 
[V:2] [D2B,2G,2] | 
[V:3] G,,2 | 
[V:1] AB | 
[V:2] [F2D2A,2] | 
[V:3] D,,2 | 
[V:1] ^GE/ E/ | 
[V:2] [E2D2B,2G,2] | 
[V:3] [E,2E,,2] | 
[V:1] Ad/ A/ | 
[V:2] [ECA,][FDA,] | 
[V:3] A,,[D,D,,] | 
[V:1] cB/ A/ | 
[V:2] [E2C2A,2]- | 
[V:3] [E,2E,,2]- | 
[V:1] e2- | 
[V:2] [E2C2A,2] | 
[V:3] [E,2E,,2] | 
[V:1] e/f/e/^d/ | 
[V:2] [E2B,2A,2] | 
[V:3] [E,2E,,2]- | 
[V:1] e/B/d/c/ | 
[V:2] [EDB,^G,][GED] | 
[V:3] [E,2E,,2] | 
[V:1] Az | 
[V:2] [AEC]A3//B// & x[FD] | 
[V:3] [A,A,,][A,D,] | 
[V:1] z2 | 
[V:2] [AEC]A3//B// & x[FD] | 
[V:3] [A,A,,][A,D,] | 
[V:1] z2 | 
[V:2] [AEC]^G3//A// & x[EB,] | 
[V:3] [A,A,,]E, | 
[V:1] z2 ||  
[V:2] [^F^DB,A,][EB,^G,] ||  
[V:3] B,,[E,E,,] ||  
[V:1] EB3// c// [I:setbarnb 36]| 
[V:2] [E2D2B,2^G,2] | 
[V:3] [E,2E,,2] | 
[V:1] A{/B} A/ G/ | 
[V:2] [E2C2A,2] | 
[V:3] [E,2A,,2] | 
[V:1] FG/ F/ | 
[V:2] [D2B,2A,2] | 
[V:3] A,,!accent!D,, | 
[V:1] E3/e/ | 
[V:2] [E2C2A,2] | 
[V:3] [E,2A,,2] | 
[V:1] d/c/ B/ c/ | 
[V:2] [^G2D2B,2] | 
[V:3] [E,2E,,2] | 
[V:1] AB | 
[V:2] [ACA,][AFB,A,] | 
[V:3] [F,F,,][D,D,,] | 
[V:1] (3E/F/ E/^G | 
[V:2] [^G2E2D2B,2] | 
[V:3] [E,2E,,2] | 
[V:1] Ac/ z/ | 
[V:2] [AEC][ECA,] | 
[V:3] [A,A,,][E,A,,] | 
[V:1] cd/ e/ | 
[V:2] [E2C2G,2]- | 
[V:3] C,2- | 
[V:1] GA | 
[V:2] [E2C2G,2] | 
[V:3] C,2 | 
[V:1] Bc/ B/ | 
[V:2] [D2B,2G,2] | 
[V:3] G,,2 | 
[V:1] AB | 
[V:2] [F2D2A,2] | 
[V:3] D,,2 | 
[V:1] ^GE/ E/ | 
[V:2] [E2D2B,2G,2] | 
[V:3] [E,2E,,2] | 
[V:1] Ad3// A// | 
[V:2] [ECA,][FDA,] | 
[V:3] A,,D,, | 
[V:1] cB3// c// | 
[V:2] [ECA,][EDG,] | 
[V:3] E,,E, | 
[V:1] A=G | 
[V:2] [ECA,][ECG,] | 
[V:3] A,,C, | 
[V:1] cd/ e/ | 
[V:2] [E2C2G,2]- | 
[V:3] C,2- | 
[V:1] GA | 
[V:2] [E2C2G,2] | 
[V:3] C,2 | 
[V:1] Bc/ B/ | 
[V:2] [D2B,2G,2] | 
[V:3] G,,2 | 
[V:1] AB | 
[V:2] [F2D2A,2] | 
[V:3] D,,2 | 
[V:1] ^GE/ E/ | 
[V:2] [E2D2B,2G,2] | 
[V:3] [E,2E,,2] | 
[V:1] Ad/ A/ | 
[V:2] [ECA,][FDA,] | 
[V:3] A,,[D,D,,] | 
[V:1] cB/ A/ | 
[V:2] [E2C2A,2]- | 
[V:3] [E,2E,,2]- | 
[V:1] e2- | 
[V:2] [E2C2A,2] | 
[V:3] [E,2E,,2] | 
[V:1] e/f/e/^d/ | 
[V:2] [E2B,2A,2] | 
[V:3] [E,2E,,2]- | 
[V:1] e/B/=d/c/ | 
[V:2] [EDG,][GED] | 
[V:3] [E,2E,,2] | 
[V:1] Az | 
[V:2] [AEC]A3//B// & x[FD] | 
[V:3] [E,A,,]D, | 
[V:1] z2 | 
[V:2] [AEC]A3//B// & x[FD] | 
[V:3] [A,A,,][A,D,] | 
[V:1] z2 | 
[V:2] [AEC]^G/A/ & x[EB,] | 
[V:3] [A,A,,]E, | 
[V:1] z2 | 
[V:2] [^F^DB,A,][EB,^G,] | 
[V:3] B,,[E,E,,] | 
[V:1] z2 | 
[V:2] [B2^G2D2] | 
[V:3] [E,2E,,2]- | 
[V:1] z2 | 
[V:2] [cGE][^GEB,] | 
[V:3] [E,2E,,2] | 
[V:1] z2 |]  
[V:2] {/^G}[A2E2C2] |]  
[V:3] [E,2A,,2] |]
